X: 1
T: AMAZON -- HORNPIPE
B: Ryan's Mammoth Collection of Fiddle Tunes
R: hornpipe
M: C|
L: 1/8
T: (Can be used as a Clog.)
Z: Contributed 20010917191412 by John Chambers jmchambers:rcn.net
K: G
uB>c \
| d>gd>B e>dc>A | G>FG>A B>GD>C | B,>DG>F E>Gc>B | ((3ABA) ((3GFE) D2B>c |
| d>gd>B e>dc>A | G>FG>A B>GD>C | B,>DG>F E>cA>F | G2B2G2 :|
|: uF>G \
| A>^GA>B c>Bc>d | e>de>f g2((3def) | g>fe>d c>BA>G | A>d^c>e d2e>f |
| (3ggg d>B (3eee c>A | (3ddd B>G (3ccc A>F | G>Be>d ^c>d=c>A | G2B2G2 :|
